assets/images/dzen_f.svg

<svg width="16" height="16" viewBox="0 0 16 16" fill="none" xmlns="http://www.w3.org/2000/svg">
<path d="M9.54286 9.54286C8.28572 10.84 8.19429 12.4571 8.08571 16C11.3886 16 13.6686 15.9886 14.8457 14.8457C15.9886 13.6686 16 11.28 16 8.08571C12.4571 8.2 10.84 8.28572 9.54286 9.54286ZM0 8.08571C0 11.28 0.0114286 13.6686 1.15429 14.8457C2.33143 15.9886 4.61143 16 7.91429 16C7.8 12.4571 7.71429 10.84 6.45714 9.54286C5.16 8.28572 3.54286 8.19429 0 8.08571ZM7.91429 0C4.61714 0 2.33143 0.0114286 1.15429 1.15429C0.0114286 2.33143 0 4.72 0 7.91429C3.54286 7.8 5.16 7.71429 6.45714 6.45714C7.71429 5.16 7.80572 3.54286 7.91429 0ZM9.54286 6.45714C8.28572 5.16 8.19429 3.54286 8.08571 0C11.3886 0 13.6686 0.0114286 14.8457 1.15429C15.9886 2.33143 16 4.72 16 7.91429C12.4571 7.8 10.84 7.71429 9.54286 6.45714Z" fill="#FF5C00"/>
<path fill-rule="evenodd" clip-rule="evenodd" d="M8.28792 3.46476C8.45974 4.80075 8.79507 5.68556 9.54286 6.45714C10.3182 7.20862 11.208 7.54152 12.555 7.71215C13.3366 7.81115 14.2721 7.85553 15.4286 7.89535C15.6116 7.90165 15.8001 7.90784 15.9945 7.91411C15.9963 7.91417 15.9982 7.91423 16 7.91429C16 7.77941 16 7.64597 15.9999 7.51399C15.9998 7.45657 15.9997 7.39942 15.9996 7.34255C15.9945 4.43496 15.9193 2.2601 14.8457 1.15429C13.7378 0.0785938 11.6528 0.0052511 8.65742 0.000345758C8.6006 0.000252705 8.54345 0.00018428 8.48598 0.000134106C8.35427 1.91316e-05 8.22085 0 8.08571 0C8.08577 0.00175327 8.08582 0.00350606 8.08588 0.00525838C8.09184 0.199697 8.09775 0.388332 8.1038 0.571429C8.14238 1.73767 8.18688 2.67921 8.28792 3.46476ZM8.67559 0.571832C8.72471 2.04682 8.78243 3.11665 8.94477 3.96308C9.1217 4.88559 9.41643 5.50318 9.94698 6.05303C10.4964 6.58318 11.1137 6.87667 12.0365 7.05301C12.8833 7.21482 13.9531 7.27243 15.4281 7.32353C15.4255 5.97134 15.4073 4.81279 15.2846 3.85009C15.144 2.74693 14.8775 2.01148 14.4416 1.55839C13.9862 1.12002 13.274 0.855125 12.1898 0.715308C11.2352 0.592217 10.0727 0.574352 8.67559 0.571832ZM15.4286 8.10465C15.6116 8.09835 15.8001 8.09216 15.9945 8.08589C15.9963 8.08583 15.9982 8.08577 16 8.08571C16 8.22059 16 8.35403 15.9999 8.48601C15.9998 8.54343 15.9997 8.60058 15.9996 8.65745C15.9945 11.565 15.9193 13.7399 14.8457 14.8457C13.7378 15.9214 11.6528 15.9947 8.65742 15.9997C8.60061 15.9997 8.54347 15.9998 8.48601 15.9999C8.35429 16 8.22086 16 8.08571 16C8.08577 15.9982 8.08583 15.9963 8.08588 15.9945C8.09184 15.8001 8.09775 15.6116 8.1038 15.4286C8.14222 14.2672 8.18651 13.3287 8.28665 12.5451C8.45809 11.2036 8.79322 10.3163 9.54286 9.54286C10.3182 8.79138 11.208 8.45848 12.555 8.28785C13.3366 8.18885 14.2721 8.14447 15.4286 8.10465ZM15.4281 8.67647C13.9531 8.72757 12.8833 8.78518 12.0365 8.94699C11.1137 9.12333 10.4964 9.41683 9.94697 9.94698C9.41643 10.4968 9.1217 11.1144 8.94477 12.0369C8.78243 12.8834 8.72471 13.9532 8.67559 15.4282C10.0727 15.4256 11.2352 15.4078 12.1898 15.2847C13.274 15.1449 13.9862 14.88 14.4416 14.4416C14.8775 13.9885 15.144 13.2531 15.2846 12.1499C15.4073 11.1872 15.4255 10.0287 15.4281 8.67647ZM7.71208 3.46476C7.81312 2.67921 7.85762 1.73767 7.8962 0.571429C7.90225 0.388332 7.90816 0.199697 7.91412 0.00525838C7.91418 0.00350606 7.91423 0.00175327 7.91429 0C7.77916 0 7.64574 1.91942e-05 7.51402 0.000134671C7.45655 0.000185057 7.3994 0.000253773 7.34258 0.000347224C4.35189 0.0052657 2.26214 0.0787008 1.15429 1.15429C0.0806838 2.2601 0.00553991 4.43496 0.000375155 7.34255C0.000274122 7.39943 0.000199844 7.45659 0.000145419 7.51402C2.03733e-05 7.64599 0 7.77942 0 7.91429C0.00175335 7.91423 0.00350623 7.91417 0.00525864 7.91412C0.199698 7.90784 0.388332 7.90165 0.571429 7.89535C1.73281 7.85536 2.67137 7.81077 3.45495 7.71088C4.79642 7.53987 5.68367 7.20676 6.45714 6.45714C7.20493 5.68556 7.54026 4.80075 7.71208 3.46476ZM6.05303 6.05303C6.58357 5.50317 6.8783 4.88558 7.05523 3.96308C7.21757 3.11665 7.27529 2.04682 7.32441 0.571833C5.92962 0.57436 4.76732 0.592243 3.81232 0.715313C2.72706 0.85517 2.01371 1.12015 1.55842 1.55838C1.12249 2.01147 0.855981 2.74693 0.715417 3.85009C0.592749 4.81279 0.574508 5.97134 0.571865 7.32353C2.04695 7.27243 3.11669 7.21482 3.96346 7.05301C4.88633 6.87667 5.50357 6.58318 6.05303 6.05303ZM3.45486 8.28665C2.6713 8.18651 1.73277 8.14222 0.571429 8.1038C0.388419 8.09775 0.199877 8.09184 0.00553541 8.08588C0.0036908 8.08583 0.00184566 8.08577 0 8.08571C0 8.22059 2.03763e-05 8.35403 0.000145446 8.48601C0.00019986 8.54342 0.000274089 8.60056 0.000375079 8.65742C0.00553937 11.565 0.0806801 13.7399 1.15429 14.8457C2.26224 15.9214 4.34723 15.9947 7.34255 15.9997C7.39938 15.9997 7.45654 15.9998 7.51402 15.9999C7.64573 16 7.77915 16 7.91429 16C7.91423 15.9982 7.91417 15.9965 7.91412 15.9947C7.90784 15.8003 7.90165 15.6117 7.89535 15.4286C7.85536 14.2672 7.81077 13.3286 7.71088 12.5451C7.53987 11.2036 7.20676 10.3163 6.45714 9.54286C5.68365 8.79322 4.79638 8.45809 3.45486 8.28665ZM6.05303 9.94698C5.50318 9.41643 4.88559 9.1217 3.96308 8.94477C3.11665 8.78244 2.04684 8.72471 0.571864 8.67559C0.5745 10.0282 0.592723 11.187 0.715417 12.1499C0.855982 13.2531 1.12249 13.9885 1.55843 14.4416C2.01384 14.88 2.72596 15.1449 3.81022 15.2847C4.76458 15.4078 5.92677 15.4256 7.32353 15.4282C7.27243 13.9531 7.21482 12.8833 7.05301 12.0365C6.87667 11.1137 6.58318 10.4964 6.05303 9.94698Z" fill="#1B1818"/>
</svg>

<svg xmlns="http://www.w3.org/2000/svg" width="16" height="16" fill="none"><path fill="#FF5C00" d="M9.543 9.543C8.286 10.84 8.194 12.457 8.086 16c3.303 0 5.583-.011 6.76-1.154C15.989 13.669 16 11.28 16 8.086c-3.543.114-5.16.2-6.457 1.457ZM0 8.086c0 3.194.011 5.583 1.154 6.76C2.331 15.989 4.611 16 7.914 16c-.114-3.543-.2-5.16-1.457-6.457C5.16 8.286 3.543 8.194 0 8.086ZM7.914 0c-3.297 0-5.583.011-6.76 1.154C.011 2.331 0 4.72 0 7.914c3.543-.114 5.16-.2 6.457-1.457C7.714 5.16 7.806 3.543 7.914 0Zm1.629 6.457C8.286 5.16 8.194 3.543 8.086 0c3.303 0 5.583.011 6.76 1.154C15.989 2.331 16 4.72 16 7.914c-3.543-.114-5.16-.2-6.457-1.457Z"/><path fill="#1B1818" fill-rule="evenodd" d="M8.288 3.465c.172 1.336.507 2.22 1.255 2.992.775.752 1.665 1.085 3.012 1.255.782.1 1.717.144 2.874.183l.566.02H16V7.342c-.005-2.908-.08-5.083-1.154-6.189C13.738.08 11.653.005 8.657 0a224.287 224.287 0 0 0-.571 0v.005l.018.566c.038 1.167.083 2.108.184 2.894ZM8.676.572c.049 1.475.106 2.545.269 3.391.177.923.471 1.54 1.002 2.09.55.53 1.167.824 2.09 1 .846.162 1.916.22 3.391.27-.003-1.352-.02-2.51-.143-3.473-.141-1.103-.408-1.839-.843-2.292-.456-.438-1.168-.703-2.252-.843-.955-.123-2.117-.14-3.514-.143Zm6.753 7.533.566-.02H16V8.658c-.005 2.908-.08 5.083-1.154 6.189-1.108 1.075-3.193 1.149-6.189 1.154H8.086v-.005l.018-.566c.038-1.162.083-2.1.183-2.884.171-1.341.506-2.229 1.256-3.002.775-.752 1.665-1.085 3.012-1.255.782-.1 1.717-.144 2.874-.183Zm0 .571c-1.476.052-2.546.11-3.393.271-.922.176-1.54.47-2.089 1-.53.55-.825 1.167-1.002 2.09-.163.846-.22 1.916-.27 3.391 1.398-.002 2.56-.02 3.515-.143 1.084-.14 1.796-.405 2.252-.843.435-.454.702-1.189.843-2.292.122-.963.14-2.121.143-3.474ZM7.711 3.465c.101-.786.146-1.727.184-2.894l.018-.566V0a457.909 457.909 0 0 0-.571 0C4.352.005 2.263.08 1.154 1.154.081 2.26.006 4.435 0 7.343a207.005 207.005 0 0 0 0 .571h.005l.566-.019c1.162-.04 2.1-.084 2.884-.184 1.341-.171 2.229-.504 3.002-1.254.748-.771 1.083-1.656 1.255-2.992ZM6.053 6.053c.53-.55.825-1.167 1.002-2.09.163-.846.22-1.916.27-3.391-1.395.002-2.558.02-3.513.143-1.085.14-1.798.405-2.254.843-.436.453-.702 1.189-.843 2.292-.122.963-.14 2.121-.143 3.474 1.475-.052 2.545-.11 3.391-.271.923-.176 1.54-.47 2.09-1ZM3.455 8.287c-.784-.1-1.722-.145-2.884-.183l-.565-.018H0a423.488 423.488 0 0 0 0 .571c.006 2.908.08 5.083 1.154 6.189C2.262 15.92 4.347 15.995 7.343 16H7.914v-.005a271.05 271.05 0 0 0-.019-.566c-.04-1.162-.084-2.1-.184-2.884-.171-1.341-.504-2.229-1.254-3.002-.773-.75-1.66-1.085-3.002-1.256Zm2.598 1.66c-.55-.53-1.167-.825-2.09-1.002-.846-.163-1.916-.22-3.391-.27.003 1.353.02 2.512.143 3.475.141 1.103.407 1.838.843 2.292.456.438 1.168.703 2.252.843.955.123 2.117.14 3.514.143-.052-1.475-.11-2.545-.271-3.392-.176-.922-.47-1.54-1-2.089Z" clip-rule="evenodd"/></svg>
